X:701
T:Una vez dixiste que s
R:Xiraldilla
C:Tradicional
S:Msica Tradicional Asturiana, (C) Tello & Tito. Asturies, 2001.
S:http://pagina.de/MusTradAst <telloytito@asturies.org>
A:Asturies
Z:Asturias, canciones
M:2/4
L:1/8
Q:1/4=200
K:C
|E2 E2|E2 FG|A2 A2|G4|
|E2 E2|G2 EG|F2 F2|E4|
|E2 E2|EE FG|A2 A2|G4|
|E2 E2|GE FG|F2 F2|E2 FG|
|A2 A2|G2 EG|F2 F2|E2 FG|
|AA BA|G2 FG|FF GF|E2 FG|
|A2 FG|A2 FG|A2 A2|G2 z2|
